barfriends-site/frontend/static/images/safety/fbthumb.svg

<svg height="557" viewBox="0 0 519 557" width="519" xmlns="http://www.w3.org/2000/svg" xmlns:xlink="http://www.w3.org/1999/xlink"><linearGradient id="a" x1="59.119187%" x2="44.869849%" y1="0%" y2="60.905612%"><stop offset="0" stop-color="#6f7fae"/><stop offset="1" stop-color="#52659c"/></linearGradient><linearGradient id="b" x1="52.985418%" x2="52.985489%" y1="-9.935337%" y2="61.798421%"><stop offset="0" stop-color="#fff"/><stop offset=".488187946" stop-color="#fff"/><stop offset=".498351888" stop-color="#fff"/><stop offset="1" stop-color="#52659c"/></linearGradient><g fill="none" fill-rule="evenodd"><path d="m77.6609169 268.161084h120.8689391c16.955582 3.537869 23.270026 15.919507 18.943331 37.144914 8.897723-4.928938 22.767202-27.145382 41.608438-66.649335 3.907711-7.361502 8.683305-15.490917 14.326782-24.388246 5.011346-14.281285 4.084627-44.739927 5.011346-59.493008.92672-14.753081 14.127911-32.255498 45.896229-21.69146 21.178879 7.042692 34.125873 27.534628 38.840982 61.475809.405761 2.136373 1.423003 2.40239 3.051726.798049 2.443083-2.406511 5.422259-3.907101 6.196098-12.630619s20.218343-80.636059 49.551246-132.5313575c-3.792373-23.1171238 6.204114-39.7905964 29.98946-50.02041781 4.552601-.82807148 14.166196 1.27566761 28.840785 6.31121725 2.462887 1.14574784 22.994818 2.95388741 27.834858 10.12974876 4.840039 7.1758613 19.926681 31.3726666 1.37162 55.7877932-3.454543 51.7426851-16.442431 128.8457141-26.091823 143.3093851-1.854991 3.740333-.874093 9.538101.866316 12.960958 1.74041 3.422857 11.132998 19.965426 3.877347 55.839014 18.181132 19.372445 19.479423 40.507574 3.894873 63.405386-.762624 1.1285-.762624 1.975505 0 2.541016 1.143936.848267 22.040486 30.897114-13.787788 63.180296-1.783458 1.431227-2.75011 3.001637-2.189522 5.980447.560588 2.978809 4.200471 32.284225-23.769785 49.172997-1.692489 1.300501-1.861219 3.029961-1.692489 4.972349.16873 1.942389.570832 32.237463-31.768724 45.797088-7.078222 23.546616-9.122134 39.007218-42.344693 37.309835-50.815816-6.848992-84.384492-20.436959-93.794085-32.99081-24.110759-.119005-42.412014 1.240941-51.617918-8.079243-6.13727-6.213455-14.522989-13.759499-25.157157-22.63813h-39.38102c-4.479292 20.478249-13.986991 30.717373-28.523095 30.717373-14.536105 0-52.9279295 0-115.1754738 0-19.58905703-4.058057-26.84621685-16.184948-21.77147948-36.380674 7.61210605-30.293588 24.96749438-96.065402 51.67763038-193.003336 3.7444652-10.83496 9.150019-26.337039 24.4170458-26.337039z" fill="#283779"/><path d="m71.0439166 303.757816c-18.272689 66.536974-35.9400517 132.772753-53.0020881 198.707337-.4071153 5.023231 2.1576002 7.534847 7.6941462 7.534847h110.4052583c5.515253-.833299 9.132252-5.145081 10.850995-12.935346 1.718744-7.790265 18.941284-73.27844 51.667618-196.464525 1.320128-6.400086-1.202281-9.600129-7.567227-9.600129-6.364947 0-42.587327 0-108.6671409 0-5.3120166.455224-9.1058705 4.707829-11.3815615 12.757816z" fill="url(#a)"/><path d="m175 474.395984 38.108589-142.714732c15.509447-4.736082 27.170293-13.970888 34.982538-27.704419 11.718367-20.600297 45.626602-82.642616 46.406547-84.845434.779945-2.202819 4.831327-10.758889 4.20063-32.128916-.420464-14.246685.145258-24.715311 1.697167-31.405877 3.184152-5.352201 9.106508-6.030401 17.767068-2.034601 12.99084 5.993701 33.636007 42.751942 31.00526 79.952986-1.753831 24.800695-4.267546 45.003727-7.541144 60.609095h121.088319c13.523351 5.146169 20.285026 13.306248 20.285026 24.480237 0 11.17399-3.106209 18.941564-9.318627 23.302723-1.621446 1.887267-2.349358 4.799431-2.183737 8.736491.248431 5.90559 8.399516 9.483431 8.399516 23.998606 0 9.676783-4.287931 17.740255-12.863792 24.190416-8.830436 7.302373-12.561948 13.983056-11.194537 20.042049 2.051116 9.08849 3.345092 16.960317-4.091598 25.56841-4.957793 5.738729-10.955022 11.474208-17.991688 17.206438-2.846449 2.638696-3.558062 7.934918-2.134837 15.888666 2.134837 11.930623-19.348772 27.461878-27.876756 27.461878-5.685323 0-54.022852 0-145.012587 0-7.675724-.579013-14.539539-3.922659-20.591443-10.030937-9.077856-9.162418-21.76879-20.573079-33.060284-20.573079-7.527662 0-17.554206 0-30.07963 0z" fill="#fff"/><path d="m464.769157 295c13.487229 5.39048 20.230843 13.68389 20.230843 24.88023s-3.143263 18.979451-9.429788 23.349333c-1.640788 1.891043-2.377384 4.809031-2.209787 8.753966.251395 5.917403 8.499713 9.502401 8.499713 24.046609 0 9.696139-4.339081 17.77574-13.017243 24.238803-8.935773 7.316979-12.711799 14.011025-11.328076 20.082138 2.075584 9.106669 3.384996 16.994242-4.140406 25.619553-5.016934 5.750207-11.085704 11.497159-18.206309 17.240854-2.880404 2.643974-3.600505 7.95079-2.160303 15.920448 2.160303 11.954487-20.068831 26.868066-28.698545 26.868066-.49164 0-31.403642-.024524-37.309256 0 41.82659-8.713047 35.886496-27.618179 35.886496-42.788514 0-8.736017 30.121305-14.566112 22.038143-50.420975 3.113361-14.616557 30.611158-17.273723 14.84256-60.806982-.418417-3.204966-.944262-4.703137.421747-9.372698 12.404136-15.134373-.552323-46.974627-9.401005-47.610831z" fill="#e7e7e7"/><path d="m369.927046 217.416492c-.482023 31.506341-2.124372 49.314206-4.927046 53.423597 13.939753 0 102.642015-1.324137 106.049393 2.159911 2.315405-3.168399 2.785585-13.174754 1.410539-30.019063-5.266187-9.187564-7.817996-16.650199-7.655427-22.387905.243854-8.606559 6.38752-21.384049 9.18625-32.084346 2.79873-10.700296 9.58069-44.517633 12.682044-68.473757 2.06757-15.97075 3.867472-35.2276345 5.399706-57.7706542 10.800949-10.1352606 11.801235-21.3869154 3.000856-33.7549645-7.370513-1.6663837-20.143565-5.1694872-38.319157-10.5093103-14.127401 7.978368-18.525527 18.2338362-13.194378 30.7664048-10.559826 22.4394715-44.468191 95.4678472-49.81915 135.0747702-1.158818 9.710836-4.189024 16.440897-9.090618 20.190182z" fill="url(#b)"/><path d="m304 521h61.256608c16.751243 3.181457 28.665707 4.241942 35.743392 3.181457-3.933851 14.229963-5.835303 16.059087-31.102855 14.229963-16.845035-1.219416-38.81075-7.023222-65.897145-17.41142z" fill="#52659c"/><path d="m343.828713 293.998676c-7.195092.001765-14.178745.001765-20.950957 0-1.01413-.063691-1.299954-.348902-1.225858-1.392778 2.638955-37.177562 2.60571-63.126046-.099733-77.845454-4.108652-22.353795 5.239164-38.052553-11.552165-63.504001 1.083019-.435502 5.064632-.452207 8.839067 1.045801 5.398559 1.509449 20.644257 12.151259 28.841934 47.352343 5.465118 23.467389 4.181022 54.915419-3.852288 94.344089z" fill="#e7e7e7"/></g></svg>

<?xml version="1.0" encoding="UTF-8"?>
<svg width="519px" height="557px" viewBox="0 0 519 557" version="1.1" xmlns="http://www.w3.org/2000/svg" xmlns:xlink="http://www.w3.org/1999/xlink">
    <!-- Generator: Sketch 53.2 (72643) - https://sketchapp.com -->
    <title>thumbsUp</title>
    <desc>Created with Sketch.</desc>
    <defs>
        <linearGradient x1="59.1191865%" y1="0%" x2="44.8698489%" y2="60.9056122%" id="linearGradient-1">
            <stop stop-color="#6F7FAE" offset="0%"></stop>
            <stop stop-color="#52659C" offset="100%"></stop>
        </linearGradient>
        <linearGradient x1="52.9854178%" y1="-9.93533696%" x2="52.9854894%" y2="61.7984214%" id="linearGradient-2">
            <stop stop-color="#FFFFFF" offset="0%"></stop>
            <stop stop-color="#FFFFFF" offset="48.8187946%"></stop>
            <stop stop-color="#FFFFFF" offset="49.8351888%"></stop>
            <stop stop-color="#52659C" offset="100%"></stop>
        </linearGradient>
    </defs>
    <g id="Page-1" stroke="none" stroke-width="1" fill="none" fill-rule="evenodd">
        <g id="Group-2" transform="translate(0.000000, -900.000000)">
            <g id="butBetter" transform="translate(0.000000, 75.000000)">
                <g id="thumbsUp" transform="translate(0.000000, 825.000000)">
                    <path d="M77.6609169,268.161084 C114.294129,268.161084 154.583775,268.161084 198.529856,268.161084 C215.485438,271.698953 221.799882,284.080591 217.473187,305.305998 C226.37091,300.37706 240.240389,278.160616 259.081625,238.656663 C262.989336,231.295161 267.76493,223.165746 273.408407,214.268417 C278.419753,199.987132 277.493034,169.52849 278.419753,154.775409 C279.346473,140.022328 292.547664,122.519911 324.315982,133.083949 C345.494861,140.126641 358.441855,160.618577 363.156964,194.559758 C363.562725,196.696131 364.579967,196.962148 366.20869,195.357807 C368.651773,192.951296 371.630949,191.450706 372.404788,182.727188 C373.178627,174.00367 392.623131,102.091129 421.956034,50.1958305 C418.163661,27.0787067 428.160148,10.4052341 451.945494,0.175412691 C456.498095,-0.652658787 466.11169,1.4510803 480.786279,6.48662994 C483.249166,7.63237778 503.781097,9.44051735 508.621137,16.6163787 C513.461176,23.79224 528.547818,47.9890453 509.992757,72.4041719 C506.538214,124.146857 493.550326,201.249886 483.900934,215.713557 C482.045943,219.45389 483.026841,225.251658 484.76725,228.674515 C486.50766,232.097372 495.900248,248.639941 488.644597,284.513529 C506.825729,303.885974 508.12402,325.021103 492.53947,347.918915 C491.776846,349.047415 491.776846,349.89442 492.53947,350.459931 C493.683406,351.308198 514.579956,381.357045 478.751682,413.640227 C476.968224,415.071454 476.001572,416.641864 476.56216,419.620674 C477.122748,422.599483 480.762631,451.904899 452.792375,468.793671 C451.099886,470.094172 450.931156,471.823632 451.099886,473.76602 C451.268616,475.708409 451.670718,506.003483 419.331162,519.563108 C412.25294,543.109724 410.209028,558.570326 376.986469,556.872943 C326.170653,550.023951 292.601977,536.435984 283.192384,523.882133 C259.081625,523.763128 240.78037,525.123074 231.574466,515.80289 C225.437196,509.589435 217.051477,502.043391 206.417309,493.16476 L167.036289,493.16476 C162.556997,513.643009 153.049298,523.882133 138.513194,523.882133 C123.977089,523.882133 85.5852645,523.882133 23.3377202,523.882133 C3.74866317,519.824076 -3.50849665,507.697185 1.56624072,487.501459 C9.17834677,457.207871 26.5337351,391.436057 53.2438711,294.498123 C56.9883363,283.663163 62.3938901,268.161084 77.6609169,268.161084 Z" id="Path-30" fill="#283779"></path>
                    <path d="M71.0439166,303.757816 C52.7712276,370.29479 35.1038649,436.530569 18.0418285,502.465153 C17.6347132,507.488384 20.1994287,510 25.7359747,510 C31.2725208,510 68.0742735,510 136.141233,510 C141.656486,509.166701 145.273485,504.854919 146.992228,497.064654 C148.710972,489.274389 165.933512,423.786214 198.659846,300.600129 C199.979974,294.200043 197.457565,291 191.092619,291 C184.727672,291 148.505292,291 82.4254781,291 C77.1134615,291.455224 73.3196076,295.707829 71.0439166,303.757816 Z" id="Path-29" fill="url(#linearGradient-1)"></path>
                    <path d="M175,474.395984 L213.108589,331.681252 C228.618036,326.94517 240.278882,317.710364 248.091127,303.976833 C259.809494,283.376536 293.717729,221.334217 294.497674,219.131399 C295.277619,216.92858 299.329001,208.37251 298.698304,187.002483 C298.27784,172.755798 298.843562,162.287172 300.395471,155.596606 C303.579623,150.244405 309.501979,149.566205 318.162539,153.562005 C331.153379,159.555706 351.798546,196.313947 349.167799,233.514991 C347.413968,258.315686 344.900253,278.518718 341.626655,294.124086 L462.714974,294.124086 C476.238325,299.270255 483,307.430334 483,318.604323 C483,329.778313 479.893791,337.545887 473.681373,341.907046 C472.059927,343.794313 471.332015,346.706477 471.497636,350.643537 C471.746067,356.549127 479.897152,360.126968 479.897152,374.642143 C479.897152,384.318926 475.609221,392.382398 467.03336,398.832559 C458.202924,406.134932 454.471412,412.815615 455.838823,418.874608 C457.889939,427.963098 459.183915,435.834925 451.747225,444.443018 C446.789432,450.181747 440.792203,455.917226 433.755537,461.649456 C430.909088,464.288152 430.197475,469.584374 431.6207,477.538122 C433.755537,489.468745 412.271928,505 403.743944,505 C398.058621,505 349.721092,505 258.731357,505 C251.055633,504.420987 244.191818,501.077341 238.139914,494.969063 C229.062058,485.806645 216.371124,474.395984 205.07963,474.395984 C197.551968,474.395984 187.525424,474.395984 175,474.395984 Z" id="Path-31" fill="#FFFFFF"></path>
                    <path d="M464.769157,295 C478.256386,300.39048 485,308.68389 485,319.88023 C485,331.07657 481.856737,338.859681 475.570212,343.229563 C473.929424,345.120606 473.192828,348.038594 473.360425,351.983529 C473.61182,357.900932 481.860138,361.48593 481.860138,376.030138 C481.860138,385.726277 477.521057,393.805878 468.842895,400.268941 C459.907122,407.58592 456.131096,414.279966 457.514819,420.351079 C459.590403,429.457748 460.899815,437.345321 453.374413,445.970632 C448.357479,451.720839 442.288709,457.467791 435.168104,463.211486 C432.2877,465.85546 431.567599,471.162276 433.007801,479.131934 C435.168104,491.086421 412.93897,506 404.309256,506 C403.817616,506 372.905614,505.975476 367,506 C408.82659,497.286953 402.886496,478.381821 402.886496,463.211486 C402.886496,454.475469 433.007801,448.645374 424.924639,412.790511 C428.038,398.173954 455.535797,395.516788 439.767199,351.983529 C439.348782,348.778563 438.822937,347.280392 440.188946,342.610831 C452.593082,327.476458 439.636623,295.636204 430.787941,295 C440.034504,295 451.361576,295 464.769157,295 Z" id="Path-31-Copy" fill="#E7E7E7"></path>
                    <path d="M369.927046,217.416492 C369.445023,248.922833 367.802674,266.730698 365,270.840089 C378.939753,270.840089 467.642015,269.515952 471.049393,273 C473.364798,269.831601 473.834978,259.825246 472.459932,242.980937 C467.193745,233.793373 464.641936,226.330738 464.804505,220.593032 C465.048359,211.986473 471.192025,199.208983 473.990755,188.508686 C476.789485,177.80839 483.571445,143.991053 486.672799,120.034929 C488.740369,104.064179 490.540271,84.8072945 492.072505,62.2642748 C502.873454,52.1290142 503.87374,40.8773594 495.073361,28.5093103 C487.702848,26.8429266 474.929796,23.3398231 456.754204,18 C442.626803,25.978368 438.228677,36.2338362 443.559826,48.7664048 C433,71.2058763 399.091635,144.234252 393.740676,183.841175 C392.581858,193.552011 389.551652,200.282072 384.650058,204.031357 L369.927046,217.416492 Z" id="Path-32" fill="url(#linearGradient-2)"></path>
                    <path d="M304,521 L365.256608,521 C382.007851,524.181457 393.922315,525.241942 401,524.181457 C397.066149,538.41142 395.164697,540.240544 369.897145,538.41142 C353.05211,537.192004 331.086395,531.388198 304,521 Z" id="Path-33" fill="#52659C"></path>
                    <path d="M343.828713,293.998676 C336.633621,294.000441 329.649968,294.000441 322.877756,293.998676 C321.863626,293.934985 321.577802,293.649774 321.651898,292.605898 C324.290853,255.428336 324.257608,229.479852 321.552165,214.760444 C317.443513,192.406649 326.791329,176.707891 310,151.256443 C311.083019,150.820941 315.064632,150.804236 318.839067,152.302244 C324.237626,153.811693 339.483324,164.453503 347.681001,199.654587 C353.146119,223.121976 351.862023,254.570006 343.828713,293.998676 Z" id="Path-35" fill="#E7E7E7"></path>
                </g>
            </g>
        </g>
    </g>
</svg>
